X: 03
T: Simon Pure
R: jig
M: 6/8
L: 1/8
Z: 2010,2014 John Chambers <jc:trillian.mit.edu>
B: John Johnson ed. "Twenty Four Country Dances", p.74 London 1766
K: Bm
F | Bcd cdB | gfe fdB | gfe fbd | c3 F2A |\
ded afd | bgb afd | bcd Afe | d3 D2 :|
|: fg |\
afb e^de | e^de Bba | gfe {g}fe^d | e3 Efg |\
f>ed/c/ Bgf | e>dc/B/ ^Afe | dcB FB^A | B3 B,2 :|
% - - - - - - - - - - - - - - - - - - - - - - - - -
%%begintext align
%% Cast off 2 Cu .| lead up again :| Cross over
%% 2 Cu lead to the Top & cast off :|. hands 4
%% at bottom Right & Left at top :|:
%%endtext
% - - - - - - - - - - - - - - - - - - - - - - - - -
